client/src/assets/icons/add-folder.svg

<svg width="30" height="30" viewBox="0 0 30 30" fill="none" xmlns="http://www.w3.org/2000/svg">
<path d="M15 13.75V21.25M11.25 17.5H18.75M27.5 23.75C27.5 24.413 27.2366 25.0489 26.7678 25.5178C26.2989 25.9866 25.663 26.25 25 26.25H5C4.33696 26.25 3.70107 25.9866 3.23223 25.5178C2.76339 25.0489 2.5 24.413 2.5 23.75V6.25C2.5 5.58696 2.76339 4.95107 3.23223 4.48223C3.70107 4.01339 4.33696 3.75 5 3.75H11.25L13.75 7.5H25C25.663 7.5 26.2989 7.76339 26.7678 8.23223C27.2366 8.70107 27.5 9.33696 27.5 10V23.75Z" stroke="#1E1E1E" stroke-width="2.46" stroke-linecap="round" stroke-linejoin="round"/>
</svg>

<svg xmlns="http://www.w3.org/2000/svg" width="30" height="30" fill="none"><path stroke="#1E1E1E" stroke-linecap="round" stroke-linejoin="round" stroke-width="2.46" d="M15 13.75v7.5m-3.75-3.75h7.5m8.75 6.25c0 .663-.2634 1.2989-.7322 1.7678A2.5004 2.5004 0 0 1 25 26.25H5a2.5001 2.5001 0 0 1-2.5-2.5V6.25A2.5 2.5 0 0 1 5 3.75h6.25l2.5 3.75H25a2.5003 2.5003 0 0 1 2.5 2.5v13.75Z"/></svg>
